X: 1
T: Chicken Reel
%R: reels
F: http://ancients.sudburymuster.org/mus/med/pdf/clemC0.pdf
Z: 2020 John Chambers <jc:trillian.mit.edu>
M: 2/4
L: 1/16
K: D
% - - - - - - - - - -
 (=f2 | f)dAF (DF)BF | (AF)(BF) A2(=f2 | f)dAF (DF)BF | Ad2c d2 :|
|: z2 | fa2f  d2(fd) |  Bdfd    Bdfd   | fa2f  d2(fd) | Bd2c d2 :|
